X:1
T:Title
%%score { 1 | 2 }
L:1/8
Q:1/4=100
M:6/8
K:G
V:1 treble nm="Grand Piano"
V:2 bass 
V:1
 [B,D][B,E][B,F] [B,G][CA][DB] | [Ec][CE][Ec] .B3 | Bdc .A3 | A[Ec][DB] .[B,G]3 | %4
w: E.~S.~Lorenz * * * * *||||
 [B,D][B,E][B,F] [B,G][CA][DB] | [Ec][CE][Ec] .B3 | Bdc A2 B | [B,G]6 | [Bd][Bd]B A2 B | [Fc]6 | %10
w: ||||||
 [Fc][Fc][FA] [EG]2 [FA] | B6 | ddB GAB | [Ec][CE][Ec] .B3 | Bdc A2 B | [B,G]6 |] %16
w: ||||||
V:2
 [G,,G,][G,,G,][G,,G,] [G,,G,][G,,G,][G,,G,] | [C,G,][C,G,][C,G,] .[G,D]3 | %2
 [D,G,D][D,B,D][D,A,D] .[D,F,D]3 | [D,F,C][D,F,][D,F,] .[G,,G,]3 | %4
 [G,,G,][G,,G,][G,,G,] [G,,G,][G,,G,][G,,G,] | [C,G,][C,G,][C,G,] .[G,D]3 | %6
 [D,G,D][D,B,D][D,A,D] [D,F,C]2 [D,F,D] | [G,,G,]6 | [G,D][G,D][G,DG] [G,DF]2 [G,DG] | [D,D]6 | %10
 [D,A,][D,A,][D,C] [D,B,]2 [D,C] | [G,DG]6 | [G,B,G][G,B,G][G,DG] [G,B,][G,CF][G,D=F] | %13
 [C,C][C,G,][C,G,] .[G,D]3 | [D,G,D][D,B,D][D,A,D] [D,F,C]2 [D,F,D] | [G,,G,]6 |] %16

